prod/images/flags-4x3/gy.svg

<svg viewBox="0 0 640 480" xmlns="http://www.w3.org/2000/svg"><g fill-rule="evenodd"><path d="m2.4 0h637.6v480h-637.6z" fill="#399408"/><path d="m.2 0c-.9 0 619.6 241.5 619.6 241.5l-619.8 238.3z" fill="#fff"/><path d="m.3 20.2c3.4 0 559 217.9 555.9 220l-554.3 223-1.6-442.9z" fill="#ffde08"/><path d="m1.9.8c1.8 0 290.9 240.9 290.9 240.9l-291 235.3v-476.2z"/><path d="m.3 33.9c1.6-15 260.9 208.4 260.9 208.4l-261 209.4v-417.8z" fill="#de2110"/></g></svg>

<svg viewBox="0 0 640 480" xmlns="http://www.w3.org/2000/svg"><g fill-rule="evenodd"><path d="M2.4 0H640v480H2.4z" fill="#399408"/><path d="M.2 0c-.9 0 619.6 241.5 619.6 241.5L0 479.8z" fill="#fff"/><path d="M.3 20.2c3.4 0 559 217.9 555.9 220L1.9 463.2.3 20.3z" fill="#ffde08"/><path d="M1.9.8c1.8 0 290.9 240.9 290.9 240.9L1.8 477V.8z"/><path d="M.3 33.9c1.6-15 260.9 208.4 260.9 208.4L.2 451.7V33.9z" fill="#de2110"/></g></svg>
